src/ui/static/img/moda.svg

<svg width="512" height="512" viewBox="0 0 512 512" fill="none" xmlns="http://www.w3.org/2000/svg">
<g clip-path="url(#clip0)">
<path d="M430.757 199.906C430.757 199.906 504.5 276.209 504.5 393.163C504.5 393.163 440.317 416.594 342.603 416.594C304.192 416.594 270.951 412.974 244.77 408.574C204.348 401.794 180.707 393.163 180.707 393.163C180.707 276.209 254.45 199.906 254.45 199.906V152.204L214.688 119.553L180.707 91.6515L245.6 33.4792C253.55 26.3489 263.36 22.4588 273.331 21.7888C277.981 21.4787 282.651 21.8688 287.201 22.9588C294.551 24.7189 301.542 28.309 307.482 33.7092L314.402 40.0095C330.383 54.57 354.824 54.57 370.814 40.0095L377.735 33.7092C383.675 28.309 390.665 24.7189 398.016 22.9588C412.326 19.5287 427.957 23.0288 439.607 33.4792L504.5 91.6515L430.757 152.204V199.906Z" fill="#FAE1DF"/>
<path d="M277.201 117.505V204.537C277.201 204.537 247.1 295.981 247.1 340.702C247.1 358.503 246.04 384.154 244.77 408.575C204.348 401.795 180.707 393.164 180.707 393.164C180.707 276.21 254.45 199.907 254.45 199.907V105.663H265.359C271.9 105.662 277.201 110.964 277.201 117.505V117.505Z" fill="#F0BFBC"/>
<path d="M273.333 21.7888C250.732 42.8396 224.531 87.1314 214.69 119.553L180.709 91.6516L245.602 33.4793C253.552 26.349 263.362 22.4588 273.333 21.7888V21.7888Z" fill="#F0BFBC"/>
<path d="M398.016 22.959C395.625 34.2094 376.885 116.923 342.603 128.933C308.322 116.923 289.591 34.2094 287.201 22.959C294.551 24.7191 301.542 28.3092 307.482 33.7094L314.402 40.0097C330.383 54.5702 354.824 54.5702 370.814 40.0097L377.735 33.7094C383.675 28.3092 390.665 24.7191 398.016 22.959V22.959Z" fill="#F0BFBC"/>
<path d="M282.077 312.934C202.305 308.768 122.534 308.768 42.7616 312.934C26.551 313.781 13.2374 326.076 11.1804 342.177C6.24717 380.791 6.24717 419.403 11.1804 458.017C13.2374 474.118 26.551 486.414 42.7616 487.26C122.534 491.426 202.305 491.426 282.077 487.26C298.288 486.413 311.601 474.118 313.658 458.017C318.591 419.403 318.591 380.791 313.658 342.177C311.6 326.076 298.287 313.781 282.077 312.934Z" fill="#FAE1DF"/>
<path d="M57.3119 487.973C52.4617 487.753 47.6115 487.513 42.7613 487.263C26.5507 486.413 13.2401 474.122 11.1801 458.012C6.24987 419.4 6.24987 380.789 11.1801 342.177C13.2401 326.077 26.5507 313.776 42.7613 312.936C47.6115 312.686 52.4617 312.446 57.3119 312.226C47.0215 317.316 39.5412 327.297 38.0111 339.287C32.8309 379.829 32.8309 420.37 38.0111 460.902C39.5412 472.892 47.0215 482.873 57.3119 487.973V487.973Z" fill="#F0BFBC"/>
<path d="M313.652 393.348C311.597 409.449 298.284 421.74 282.073 422.584C202.305 426.76 122.537 426.76 42.7569 422.584C26.5453 421.74 13.2328 409.449 11.1777 393.348C10.0957 384.872 9.25663 376.395 8.63561 367.918C7.14355 388.943 7.11055 409.968 8.5436 430.993C14.5798 440.14 24.7322 446.264 36.2877 446.866C120.38 451.267 204.46 451.267 288.542 446.866C300.102 446.264 310.258 440.135 316.293 430.982C317.726 409.945 317.692 388.909 316.197 367.873C315.587 376.365 314.747 384.857 313.652 393.348Z" fill="#F0BFBC"/>
<path d="M202.808 448.85C178.699 450.169 154.591 450.169 130.482 448.85C119.931 448.273 111.52 439.921 110.671 429.389C109.506 414.932 109.506 400.476 110.671 386.019C111.52 375.487 119.931 367.135 130.481 366.558C154.59 365.239 178.698 365.239 202.807 366.558C213.358 367.135 221.77 375.487 222.618 386.019C223.783 400.476 223.783 414.932 222.618 429.389C221.771 439.921 213.36 448.273 202.808 448.85V448.85Z" fill="#FFD064"/>
<path d="M166.645 423.191C156.779 423.191 146.796 422.956 136.897 422.492C136.298 412.659 136.298 402.749 136.897 392.915C146.796 392.452 156.779 392.217 166.645 392.217C176.509 392.217 186.492 392.452 196.391 392.915C196.99 402.749 196.99 412.659 196.391 422.492C186.492 422.956 176.509 423.191 166.645 423.191Z" fill="#00B6C8"/>
<path d="M474.207 249.074C458.923 221.14 443.729 203.088 438.256 196.977V155.747L509.259 97.4462C510.949 96.0571 511.95 94.0001 511.997 91.812C512.045 89.6239 511.134 87.5248 509.505 86.0647L455.783 37.9129C452.699 35.1488 447.957 35.4088 445.191 38.4919C442.426 41.576 442.686 46.3182 445.771 49.0833L492.983 91.401L438.259 136.336V105.663C438.259 101.52 434.902 98.1622 430.759 98.1622C426.616 98.1622 423.259 101.52 423.259 105.663L423.255 193.563C369.702 202.23 315.501 202.229 261.948 193.561V105.663C261.948 101.52 258.591 98.1622 254.448 98.1622C250.305 98.1622 246.948 101.52 246.948 105.663V136.339L192.22 91.401L250.605 39.0619C259.194 31.3596 270.287 28.1585 280.961 29.4265C283.159 38.8689 288.207 58.6747 295.96 78.4055C308.698 110.828 323.557 130.21 340.121 136.014C340.924 136.295 341.762 136.436 342.6 136.436C343.439 136.436 344.278 136.295 345.08 136.014C361.644 130.21 376.504 110.828 389.245 78.4065C396.985 58.7127 402.027 38.9589 404.234 29.4935C410.842 28.7035 417.666 29.5875 424.011 32.3036C427.822 33.9347 432.228 32.1676 433.858 28.3605C435.489 24.5523 433.723 20.1442 429.916 18.5141C410.648 10.2648 388.185 14.0539 372.684 28.1635L365.762 34.4637C352.557 46.4882 332.649 46.4882 319.449 34.4637L312.528 28.1635C292.092 9.55876 261.164 9.44375 240.591 27.8945L175.697 86.0668C174.067 87.5268 173.157 89.6269 173.205 91.814C173.252 94.0021 174.253 96.0591 175.943 97.4482L246.946 155.749V196.973C242.029 202.445 229.392 217.389 215.924 240.304C204.517 234.226 192.454 228.224 180.234 222.149C169.556 216.839 158.8 211.491 148.476 206.059C158.566 193.424 166.35 179.121 169.761 162.354C174.973 136.73 167.349 113.841 148.843 99.5553C131.299 86.0128 107.139 82.9936 88.7216 92.043C78.8492 96.8932 62.2875 109.482 62.2875 139.287C62.2875 158.154 74.269 175.989 98.919 193.814C106.629 199.389 115.298 204.789 124.524 210.059C113.086 221.31 99.958 231.324 87.5565 240.783C60.8565 261.148 35.5245 280.484 34.8695 306.537C18.5348 310.454 5.93133 324.075 3.73724 341.232C-1.25095 380.293 -1.25095 419.905 3.73724 458.968C6.25734 478.664 22.503 493.717 42.3677 494.758C82.1973 496.835 122.307 497.873 162.417 497.873C202.527 497.873 242.64 496.834 282.47 494.758C302.34 493.716 318.581 478.662 321.089 458.968C322.583 447.29 323.62 435.561 324.221 423.814C330.323 423.997 336.476 424.095 342.6 424.095C440.514 424.095 504.397 401.185 507.069 400.21C510.028 399.129 511.997 396.315 511.997 393.165C511.999 331.16 491.448 280.584 474.207 249.074V249.074ZM309.35 45.5502C328.303 62.8198 356.899 62.8198 375.864 45.5522L382.784 39.2529C384.19 37.9729 385.677 36.8118 387.228 35.7698C384.623 45.7062 380.627 59.3317 375.288 72.9172C362.785 104.731 350.981 116.653 342.603 120.804C334.227 116.653 322.423 104.731 309.923 72.9172C304.585 59.3297 300.588 45.6952 297.983 35.7548C299.527 36.7978 301.015 37.9619 302.433 39.2519L309.35 45.5502ZM77.2921 139.283C77.2921 122.984 83.5324 111.303 95.3398 105.502C100.278 103.075 105.921 101.898 111.729 101.898C121.436 101.898 131.6 105.187 139.681 111.425C147.794 117.687 160.58 132.243 155.065 159.359C152.042 174.223 144.646 187.155 134.993 198.748C102.577 180.582 77.2921 161.297 77.2921 139.283V139.283ZM43.1498 320.427C56.5193 319.733 69.8938 319.153 82.9023 318.703C87.0425 318.559 90.2816 315.088 90.1376 310.948C89.9936 306.806 86.5485 303.58 82.3823 303.711C71.7739 304.078 60.9225 304.535 50.03 305.065C51.9621 286.811 72.8529 270.861 96.6569 252.706C110.64 242.04 125.485 230.717 138.245 217.606C149.738 223.731 161.738 229.699 173.558 235.577C185.388 241.46 197.315 247.391 208.626 253.426C201.196 267.544 193.889 283.972 187.84 302.481C162.609 302.2 137.42 302.309 112.419 302.858C108.277 302.949 104.994 306.379 105.085 310.522C105.176 314.664 108.589 317.981 112.748 317.855C168.66 316.628 225.501 317.494 281.692 320.427C294.309 321.081 304.621 330.627 306.213 343.13C307.266 351.361 308.076 359.618 308.67 367.89C308.064 376.19 307.241 384.43 306.213 392.403C304.622 404.895 294.307 414.437 281.68 415.092C264.697 415.979 247.637 416.67 230.817 417.175C231.177 406.583 230.944 395.948 230.095 385.416C228.948 371.172 217.393 359.844 203.218 359.069C178.948 357.741 154.337 357.74 130.073 359.069C115.898 359.844 104.343 371.172 103.195 385.416C102.34 396.028 102.109 406.745 102.481 417.418C82.7293 416.892 62.8165 416.122 43.1498 415.092C30.5273 414.438 20.2109 404.896 18.6208 392.4C17.6148 384.521 16.7898 376.308 16.1617 367.98C16.7557 359.678 17.5658 351.391 18.6208 343.13C20.2189 330.629 30.5353 321.081 43.1498 320.427V320.427ZM221.826 260.703C246.124 274.607 265.756 289.153 272.354 304.966C249.487 303.874 226.535 303.117 203.59 302.706C208.997 287.049 215.36 272.971 221.826 260.703V260.703ZM215.143 428.785C214.594 435.586 209.115 440.992 202.398 441.36C202.397 441.36 202.397 441.36 202.397 441.36C178.673 442.658 154.617 442.658 130.891 441.36C124.174 440.992 118.695 435.586 118.147 428.785C117.02 414.797 117.02 400.61 118.147 386.621C118.695 379.82 124.174 374.415 130.892 374.047C142.754 373.398 154.699 373.073 166.645 373.073C178.59 373.073 190.536 373.398 202.398 374.047C209.115 374.415 214.594 379.82 215.143 386.621C216.27 400.61 216.27 414.797 215.143 428.785ZM281.69 479.774C202.548 483.9 122.294 483.9 43.1548 479.774C30.5383 479.112 20.2189 469.561 18.6208 457.063C16.9668 444.109 15.8927 431.091 15.3727 418.055C22.359 425.059 31.8563 429.527 42.3697 430.072C62.6315 431.134 83.1583 431.922 103.504 432.451C105.703 445.52 116.725 455.608 130.072 456.338C142.207 457.002 154.426 457.334 166.645 457.334C178.863 457.334 191.084 457.002 203.216 456.338C216.646 455.603 227.717 445.396 229.821 432.212C247.217 431.701 264.881 430.991 282.458 430.072C292.978 429.527 302.479 425.056 309.466 418.05C308.945 431.088 307.869 444.109 306.212 457.066C304.62 469.563 294.307 479.112 281.69 479.774V479.774ZM472.383 394.476C470.839 371.928 467.988 349.462 463.878 327.567C463.114 323.496 459.198 320.817 455.123 321.58C451.052 322.344 448.371 326.264 449.136 330.335C453.275 352.387 456.092 375.039 457.556 397.761C451.781 398.944 445.232 400.173 437.985 401.369C437.078 371.206 433.859 341.172 428.381 311.965C427.617 307.893 423.697 305.214 419.626 305.975C415.555 306.739 412.874 310.659 413.638 314.73C419.081 343.758 422.241 373.63 423.048 403.625C400.684 406.694 373.373 409.092 342.601 409.092C336.652 409.092 330.675 408.998 324.747 408.821C325.171 386.248 323.958 363.65 321.091 341.234C318.842 323.572 305.556 309.66 288.519 306.22C283.013 283.301 259.482 264.891 229.152 247.582C241.14 227.292 252.355 213.606 257.252 207.991C285.581 212.705 314.093 215.069 342.605 215.069C371.116 215.069 399.626 212.706 427.954 207.992C433.582 214.428 447.514 231.444 461.291 256.726C477.078 285.694 495.802 331.607 496.942 387.772C492.063 389.311 483.699 391.774 472.383 394.476V394.476Z" fill="#546A7B"/>
<path d="M196.741 385.423C186.723 384.954 176.597 384.717 166.644 384.717C156.69 384.717 146.563 384.954 136.545 385.423C132.719 385.602 129.643 388.635 129.409 392.459C128.794 402.574 128.794 412.832 129.409 422.948C129.642 426.772 132.719 429.805 136.545 429.984C146.555 430.452 156.683 430.69 166.644 430.69C176.604 430.69 186.731 430.453 196.741 429.984C200.567 429.805 203.643 426.772 203.877 422.948C204.492 412.832 204.492 402.575 203.877 392.459C203.644 388.636 200.568 385.602 196.741 385.423ZM189.218 415.282C174.142 415.823 159.144 415.823 144.07 415.282C143.909 410.237 143.909 405.171 144.07 400.126C159.154 399.584 174.134 399.584 189.218 400.126C189.379 405.171 189.379 410.237 189.218 415.282V415.282Z" fill="#546A7B"/>
</g>
<defs>
<clipPath id="clip0">
<rect width="512" height="512" fill="white"/>
</clipPath>
</defs>
</svg>

<svg id="Capa_1" enable-background="new 0 0 511.98 511.98" height="512" viewBox="0 0 511.98 511.98" width="512" xmlns="http://www.w3.org/2000/svg"><g><g><path d="m430.74 199.898s73.74 76.3 73.74 193.25c0 0-64.18 23.43-161.89 23.43-38.41 0-71.65-3.62-97.83-8.02-40.42-6.78-64.06-15.41-64.06-15.41 0-116.95 73.74-193.25 73.74-193.25v-47.7l-39.76-32.65-33.98-27.9 64.89-58.17c7.95-7.13 17.76-11.02 27.73-11.69 4.65-.31 9.32.08 13.87 1.17 7.35 1.76 14.34 5.35 20.28 10.75l6.92 6.3c15.98 14.56 40.42 14.56 56.41 0l6.92-6.3c5.94-5.4 12.93-8.99 20.28-10.75 14.31-3.43 29.94.07 41.59 10.52l64.89 58.17-73.74 60.55z" fill="#80b4fb"/><g fill="#61a2f9"><path d="m277.19 117.5v87.029s-30.1 91.44-30.1 136.16c0 17.8-1.06 43.45-2.33 67.87-40.42-6.78-64.06-15.41-64.06-15.41 0-116.95 73.74-193.25 73.74-193.25v-94.24h10.909c6.54-.001 11.841 5.301 11.841 11.841z"/><path d="m273.321 21.788c-22.6 21.05-48.8 65.34-58.64 97.76l-33.98-27.9 64.89-58.17c7.95-7.13 17.76-11.02 27.73-11.69z"/><path d="m398 22.958c-2.39 11.25-21.13 93.96-55.41 105.97-34.28-12.01-53.01-94.72-55.4-105.97 7.35 1.76 14.34 5.35 20.28 10.75l6.92 6.3c15.98 14.56 40.42 14.56 56.41 0l6.92-6.3c5.94-5.4 12.93-8.99 20.28-10.75z"/></g><g><path d="m282.066 312.922c-79.769-4.166-159.537-4.166-239.306 0-16.21.847-29.523 13.141-31.58 29.242-4.933 38.612-4.933 77.223 0 115.835 2.057 16.101 15.37 28.396 31.58 29.242 79.769 4.166 159.537 4.166 239.306 0 16.21-.847 29.523-13.141 31.58-29.242 4.933-38.612 4.933-77.223 0-115.835-2.058-16.101-15.371-28.395-31.58-29.242z" fill="#db5b6f"/><path d="m57.31 487.954c-4.85-.22-9.7-.46-14.55-.71-16.21-.85-29.52-13.14-31.58-29.25-4.93-38.61-4.93-77.22 0-115.83 2.06-16.1 15.37-28.4 31.58-29.24 4.85-.25 9.7-.49 14.55-.71-10.29 5.09-17.77 15.07-19.3 27.06-5.18 40.54-5.18 81.08 0 121.61 1.53 11.99 9.01 21.97 19.3 27.07z" fill="#d54653"/><path d="m313.64 393.333c-2.054 16.1-15.367 28.391-31.577 29.235-79.765 4.175-159.53 4.175-239.307 0-16.211-.844-29.523-13.135-31.578-29.235-1.082-8.476-1.921-16.953-2.542-25.429-1.492 21.024-1.525 42.048-.092 63.072 6.036 9.147 16.188 15.271 27.743 15.873 84.089 4.4 168.166 4.4 252.244 0 11.56-.602 21.716-6.731 27.75-15.884 1.433-21.036 1.399-42.071-.096-63.106-.61 8.491-1.45 16.983-2.545 25.474z" fill="#d54653"/><path d="m202.8 448.832c-24.108 1.319-48.215 1.319-72.323 0-10.551-.577-18.962-8.928-19.811-19.46-1.165-14.456-1.165-28.912 0-43.368.849-10.532 9.26-18.883 19.81-19.46 24.108-1.319 48.215-1.319 72.323 0 10.55.577 18.962 8.928 19.81 19.46 1.165 14.456 1.165 28.912 0 43.368-.847 10.532-9.258 18.883-19.809 19.46z" fill="#ffd064"/><path d="m166.639 423.174c-9.865 0-19.848-.235-29.747-.698-.599-9.833-.599-19.743 0-29.576 9.899-.463 19.882-.698 29.747-.698 9.864 0 19.847.235 29.745.698.599 9.833.599 19.743 0 29.576-9.898.463-19.881.698-29.745.698z" fill="#db5b6f"/></g></g><g><path d="m474.189 249.065c-15.283-27.933-30.476-45.984-35.949-52.095v-41.228l71-58.299c1.69-1.389 2.691-3.446 2.738-5.634.048-2.188-.863-4.287-2.492-5.747l-53.72-48.15c-3.084-2.764-7.826-2.504-10.591.579-2.765 3.084-2.505 7.826.579 10.591l47.211 42.316-54.722 44.933v-30.672c0-4.142-3.357-7.5-7.5-7.5s-7.5 3.358-7.5 7.5l-.004 87.897c-53.551 8.667-107.749 8.666-161.3-.002v-87.895c0-4.142-3.357-7.5-7.5-7.5s-7.5 3.358-7.5 7.5v30.675l-54.726-44.936 58.383-52.337c8.589-7.702 19.681-10.903 30.355-9.635 2.198 9.442 7.246 29.247 14.998 48.977 12.738 32.421 27.596 51.803 44.16 57.606.803.281 1.641.422 2.479.422s1.677-.141 2.479-.422c16.564-5.803 31.423-25.185 44.164-57.605 7.739-19.693 12.781-39.446 14.988-48.911 6.608-.79 13.432.094 19.776 2.81 3.811 1.631 8.217-.136 9.847-3.943 1.631-3.808-.135-8.216-3.942-9.846-19.267-8.249-41.729-4.46-57.23 9.649l-6.921 6.3c-13.205 12.024-33.112 12.024-46.312 0l-6.92-6.3c-20.436-18.604-51.362-18.719-71.935-.269l-64.891 58.17c-1.63 1.46-2.54 3.56-2.492 5.747.047 2.188 1.048 4.245 2.738 5.634l71 58.299v41.222c-4.917 5.472-17.553 20.415-31.021 43.329-11.406-6.078-23.469-12.079-35.688-18.154-10.678-5.31-21.433-10.658-31.757-16.089 10.09-12.635 17.873-26.937 21.284-43.704 5.212-25.623-2.412-48.511-20.917-62.796-17.543-13.542-41.702-16.561-60.119-7.512-9.872 4.85-26.433 17.438-26.433 47.242 0 18.866 11.981 36.701 36.63 54.525 7.71 5.575 16.378 10.975 25.604 16.244-11.438 11.251-24.565 21.265-36.966 30.723-26.699 20.364-52.03 39.7-52.685 65.752-16.334 3.916-28.937 17.537-31.131 34.693-4.988 39.06-4.988 78.67 0 117.732 2.52 19.695 18.765 34.747 38.629 35.788 39.828 2.077 79.936 3.115 120.045 3.115 40.108 0 80.219-1.039 120.048-3.115 19.869-1.042 36.109-16.095 38.617-35.788 1.494-11.678 2.531-23.406 3.132-35.153 6.102.183 12.255.281 18.379.281 97.91 0 161.79-22.909 164.462-23.884 2.959-1.081 4.928-3.895 4.928-7.045.002-62.002-20.548-112.576-37.789-144.085zm-164.85-203.516c18.952 17.269 47.547 17.269 66.511.002l6.92-6.299c1.406-1.28 2.893-2.441 4.444-3.483-2.605 9.936-6.601 23.561-11.94 37.146-12.502 31.813-24.306 43.734-32.683 47.885-8.376-4.151-20.18-16.072-32.679-47.885-5.338-13.587-9.335-27.221-11.94-37.161 1.544 1.043 3.032 2.207 4.45 3.497zm-232.049 93.729c0-16.298 6.24-27.979 18.047-33.78 4.938-2.426 10.581-3.603 16.389-3.603 9.706 0 19.87 3.289 27.95 9.526 8.113 6.262 20.899 20.817 15.384 47.932-3.023 14.864-10.419 27.795-20.071 39.388-32.415-18.165-57.699-37.45-57.699-59.463zm-34.141 181.137c13.369-.694 26.743-1.274 39.751-1.724 4.14-.144 7.379-3.615 7.235-7.755-.144-4.141-3.589-7.367-7.755-7.236-10.608.367-21.459.824-32.351 1.354 1.932-18.254 22.822-34.203 46.625-52.357 13.983-10.666 28.827-21.988 41.586-35.099 11.493 6.125 23.493 12.093 35.312 17.97 11.83 5.883 23.756 11.814 35.067 17.849-7.43 14.117-14.737 30.545-20.785 49.053-25.23-.281-50.418-.172-75.418.377-4.142.091-7.425 3.521-7.334 7.663s3.504 7.459 7.662 7.333c55.91-1.227 112.749-.361 168.938 2.572 12.616.654 22.928 10.2 24.52 22.702 1.053 8.231 1.863 16.488 2.457 24.759-.606 8.3-1.429 16.54-2.457 24.512-1.591 12.492-11.906 22.033-24.532 22.688-16.982.887-34.042 1.578-50.861 2.083.36-10.591.127-21.226-.722-31.757-1.147-14.244-12.702-25.571-26.876-26.346-24.269-1.328-48.879-1.329-73.142 0-14.175.775-25.729 12.102-26.877 26.346-.855 10.611-1.086 21.328-.714 32-19.751-.526-39.663-1.296-59.329-2.326-12.622-.654-22.938-10.195-24.528-22.691-1.006-7.878-1.831-16.091-2.459-24.419.594-8.301 1.404-16.588 2.459-24.849 1.598-12.5 11.914-22.048 24.528-22.702zm178.669-59.722c24.297 13.904 43.929 28.449 50.526 44.262-22.866-1.092-45.817-1.849-68.761-2.26 5.407-15.657 11.769-29.734 18.235-42.002zm-6.683 168.076c-.548 6.801-6.027 12.206-12.744 12.574-.001 0-.001 0-.001 0-23.723 1.298-47.778 1.298-71.503 0-6.717-.368-12.196-5.773-12.744-12.574-1.127-13.988-1.127-28.174 0-42.162.548-6.801 6.027-12.206 12.745-12.574 11.861-.649 23.806-.974 35.751-.974s23.89.325 35.752.974c6.717.368 12.196 5.773 12.744 12.574 1.127 13.988 1.127 28.174 0 42.162zm66.545 50.987c-79.139 4.126-159.39 4.126-238.526 0-12.616-.662-22.935-10.213-24.533-22.71-1.654-12.954-2.728-25.971-3.248-39.007 6.986 7.004 16.483 11.472 26.996 12.017 20.261 1.062 40.787 1.85 61.132 2.379 2.199 13.068 13.22 23.156 26.567 23.886 12.134.664 24.353.996 36.571.996s24.438-.332 36.57-.996c13.429-.735 24.5-10.942 26.604-24.125 17.395-.511 35.059-1.221 52.635-2.14 10.519-.545 20.02-5.016 27.007-12.022-.521 13.038-1.597 26.058-3.254 39.015-1.592 12.496-11.905 22.045-24.521 22.707zm190.685-85.295c-1.543-22.547-4.394-45.012-8.504-66.906-.764-4.071-4.68-6.75-8.755-5.987-4.071.764-6.752 4.684-5.987 8.755 4.139 22.051 6.956 44.702 8.42 67.423-5.775 1.183-12.323 2.412-19.57 3.608-.907-30.162-4.126-60.195-9.604-89.401-.764-4.071-4.684-6.75-8.754-5.989-4.071.764-6.752 4.683-5.988 8.754 5.443 29.027 8.602 58.898 9.409 88.892-22.363 3.069-49.673 5.467-80.443 5.467-5.949 0-11.926-.094-17.854-.271.424-22.572-.789-45.17-3.656-67.585-2.249-17.661-15.534-31.573-32.57-35.012-5.506-22.918-29.036-41.328-59.365-58.636 11.987-20.289 23.202-33.975 28.099-39.59 28.328 4.714 56.839 7.078 85.35 7.078 28.509 0 57.018-2.363 85.345-7.077 5.628 6.436 19.559 23.452 33.336 48.733 15.786 28.966 34.51 74.878 35.649 131.04-4.878 1.539-13.242 4.002-24.558 6.704z"/><path d="m196.735 385.408c-10.018-.469-20.143-.706-30.096-.706-9.954 0-20.08.237-30.098.706-3.826.179-6.902 3.212-7.136 7.036-.615 10.114-.615 20.372 0 30.487.233 3.824 3.31 6.857 7.136 7.036 10.01.468 20.137.706 30.098.706 9.96 0 20.086-.237 30.096-.706 3.826-.179 6.902-3.212 7.136-7.036.615-10.115.615-20.372 0-30.487-.233-3.823-3.309-6.857-7.136-7.036zm-7.523 29.858c-15.075.541-30.073.541-45.146 0-.161-5.045-.161-10.111 0-15.156 15.083-.542 30.063-.542 45.146 0 .161 5.045.161 10.111 0 15.156z"/></g></g></svg>
